Obsidian-SemiLight/actions/22s/labplot-xy-plot-two-axes.svg

<svg viewBox="0 0 22 22" xmlns="http://www.w3.org/2000/svg"><path d="m4 3v6 1 2 1 4h-1v1h1v1h1v-1h12.71875 1.28125v-.15625-.84375h-.84375l-.1875-.1875-.84375-.8125-1.28125-1.3125-.71875-.6875-2.125 2.09375-1.3125-1.28125-.8125-.8125-2-2h-1.875-1-1v-2h1 1 1.875l2-2 .8125-.84375 1.3125-1.28125 2.125 2.125 2-2 .84375-.84375 1.03125-1.03125v-.21875h-.21875l-.5-.46875-1.03125 1.03125-.8125.8125-1.3125 1.3125-2.125-2.125-1.53125 1.53125-.46875.46875-.84375.8125-1.6875 1.71875h-1.46875-1-1v-6zm1 10h1 1 1.46875l1.6875 1.6875.84375.84375.46875.46875 1 1h-7.46875zm10.125 2.40625 1.3125 1.28125.294922.3125h-3.201172z" fill="#4d4d4d"/></svg>

<svg xmlns="http://www.w3.org/2000/svg" viewBox="0 0 22 22">
  <defs id="defs3051">
    <style type="text/css" id="current-color-scheme">
      .ColorScheme-Text {
        color:#4d4d4d
      }
      </style>
  </defs>
 <path 
     style="fill:currentColor;fill-opacity:1;stroke:none" 
     d="M 4 3 L 4 9 L 4 10 L 4 12 L 4 13 L 4 17 L 3 17 L 3 18 L 4 18 L 4 19 L 5 19 L 5 18 L 17.71875 18 L 19 18 L 19 17.84375 L 19 17 L 18.15625 17 L 17.96875 16.8125 L 17.125 16 L 15.84375 14.6875 L 15.125 14 L 13 16.09375 L 11.6875 14.8125 L 10.875 14 L 8.875 12 L 7 12 L 6 12 L 5 12 L 5 10 L 6 10 L 7 10 L 8.875 10 L 10.875 8 L 11.6875 7.15625 L 13 5.875 L 15.125 8 L 17.125 6 L 17.96875 5.15625 L 19 4.125 L 19 3.90625 L 18.78125 3.90625 L 18.28125 3.4375 L 17.25 4.46875 L 16.4375 5.28125 L 15.125 6.59375 L 13 4.46875 L 11.46875 6 L 11 6.46875 L 10.15625 7.28125 L 8.46875 9 L 7 9 L 6 9 L 5 9 L 5 3 L 4 3 z M 5 13 L 6 13 L 7 13 L 8.46875 13 L 10.15625 14.6875 L 11 15.53125 L 11.46875 16 L 12.46875 17 L 5 17 L 5 13 z M 15.125 15.40625 L 16.4375 16.6875 L 16.732422 17 L 13.53125 17 L 15.125 15.40625 z "
     class="ColorScheme-Text"
     />
</svg>
